X: 41910
T: Wait!, The
R: reel
M: 4/4
K: Eminor
|:E2 BE GBEB|{c}BAGE ~F3 B|E2 BE GBEB|dG ~G2 AF F2|
E2 BE GBEB|{c}BAGE ~F3 A|BAGF GABc|dG ~G2 AF F2:|
|:G2 (3AGF GABc|dg ~G2 dedB|GFGA Bdge|dGBG AF F2|
G2 (3AGF GABc|dg ~G2 ~e3 f|gd (3efe dBAc|BAGE ~F3 B:|

